X: 42725
T: Whistling Postman, The
R: reel
M: 4/4
K: Dmajor
fd ~d2 edef|dBAF ~E3 F|~D2 FD AGFA|defd g2 ag|
fd ~d2 edef|dBAF ~E3F|~D2 F~A3 f|1 eABc d2 z2:|2 edBc d2 Ad||
fddc dfaf|bfaf gfec|dfaf g3 b|afdf e2 de|
f2 dc dfaf|bfaf gfec|dBAG FAdf|eABc dcde||
fddc dfaf|bfaf gfec|dfaf g3 b|afdf e2 fg|
~a3 a afdf|gefd edBc|dBAG FAdf|eABc d4||

